X:1
N: Old Nick's Lumber Room
N: 8 x 32J 3C (RSCDS Bk 26)
P: Roxburgh Quick Step
R: jig
C: arr. T. Traub 5-27-2000
M: 6/8
K: D
L: 1/8
|: A,|"D"D3 FEF |A2 d F2 F|"Em"G2 B E2 D|"A"CEA A,B,C|"D"D3 FEF |A2 d F2 F|"Em"GBA "G"GFE |"A"E3 "D"D2 :|
A |"D"d3 fef |a2 a f2 d|A2 d G2 A|"A7"GEE E2 A|"D"d3 fef |a2 a fed|"G"Bdc "E"BA^G|"A"ABA =GFE||
"D"D3 FEF |A2 d F2 F|"Em"G2 B "G"E2 D|"A"CEA A,B,C|"D"D3 FEF |"D"A2 d "Bm"F2 F|"Em"GBA "G"GFE |"A"E3 "D"D2 |]



